X:1
T:Title
%%score { ( 1 4 5 ) | ( 2 3 ) }
L:1/8
M:6/4
K:E
V:1 treble nm="Grand Piano"
V:4 treble 
V:5 treble 
V:2 bass 
V:3 bass 
V:1
 z6 z4[Q:1/4=108] G2 | G2 E2 F2 G2 B2 A2 | G6- G4 G2 | E6 z2 G2 A2 |[M:5/4] G2- G2- G6 | %5
[M:1/4] E2 |[M:6/4] c4 B2 [Ad]4 [Ge]2 | B6 z4 [B,EG]2 | [A,CF]6[K:bass] [F,B,D]6 | %9
[M:5/4] [G,B,E]2- [G,B,E]2- [G,B,E]6 |] %10
V:2
 z6 z4 [E,B,E]2 | .[B,E]6 .B,6 | [E,B,E]6- [E,B,E]4 [E,B,E]2 | [B,,B,]6 [B,,B,]6 | %4
[M:5/4] [E,B,E]2- [E,B,E]2- [E,B,E]6 |[M:1/4] [G,B,]2 |[M:6/4] [A,E]4 [G,B,E]2 [F,B,]4 [E,B,]2 | %7
 z6 A4 E,2 | A,,6 B,,6 |[M:5/4] E,2- E,2- E,6 |] %10
V:3
 x12 | E,2- [E,G,]2 [E,A,E]2 [E,E]2- [E,=DE]2 [E,CE]2 | x12 | x12 |[M:5/4] x10 |[M:1/4] x2 | %6
[M:6/4] x12 | D,12 | x12 |[M:5/4] x10 |] %10
V:4
 x12 | x12 | x12 | .F12 |[M:5/4] x10 |[M:1/4] x2 |[M:6/4] x12 | [B,F]12 | x6[K:bass] x6 | %9
[M:5/4] x10 |] %10
V:5
 x12 | x12 | x12 | z6 D6 |[M:5/4] x10 |[M:1/4] x2 |[M:6/4] x12 | x12 | x6[K:bass] x6 | %9
[M:5/4] x10 |] %10

